src/assets/img/icons/preloader/earth.svg

<svg width="37" height="13" viewBox="0 0 37 13" fill="none" xmlns="http://www.w3.org/2000/svg">
<path d="M0.761719 12.5927C0.761719 9.58985 4.07613 7.58794 6.89757 7.58794C7.22472 7.58817 7.55124 7.61664 7.8735 7.67303C8.27263 5.14562 10.5473 3.20877 13.2949 3.20877C13.5321 3.2092 13.769 3.22424 14.0043 3.25381C14.5052 2.43724 15.2072 1.76278 16.0431 1.29488C16.879 0.826985 17.8209 0.581299 18.7789 0.581299C19.7368 0.581299 20.6788 0.826985 21.5147 1.29488C22.3506 1.76278 23.0526 2.43724 23.5534 3.25381C23.7888 3.22424 24.0257 3.2092 24.2629 3.20877C27.0105 3.20877 29.2852 5.14562 29.6843 7.67303C30.0065 7.61664 30.3331 7.58817 30.6602 7.58794C33.4817 7.58794 36.7961 9.58985 36.7961 12.5927H0.761719Z" fill="#795646"/>
</svg>

<svg width="37" height="13" fill="none" xmlns="http://www.w3.org/2000/svg"><path d="M.762 12.593c0-3.003 3.314-5.005 6.136-5.005.327 0 .653.029.976.085.399-2.527 2.673-4.464 5.42-4.464.238 0 .475.015.71.045a5.602 5.602 0 019.55 0c.235-.03.472-.045.709-.045 2.747 0 5.022 1.937 5.421 4.464a5.71 5.71 0 01.976-.085c2.822 0 6.136 2.002 6.136 5.005H.762z" fill="#795646"/></svg>
